src/assets/images/icon-bed.svg

<svg xmlns="http://www.w3.org/2000/svg" viewBox="0 0 18.41 11.67"><g data-name="Capa 2"><path d="M7.57 1.73L8.64.47h-1V0h1.78v.37L8.35 1.63h1.11v.48H7.57zm-2 1.39l.71-.84h-.73V2h1.21v.24l-.71.84h.74v.32H5.53zm12.11 8.55v-1.58H.76v1.58H0v-8.3h.76v3.1a1.51 1.51 0 01.31-.16V6a1.63 1.63 0 011.62-1.68h2A1.63 1.63 0 016.34 6v.22h10.32a1.75 1.75 0 011 .3V4.79h.77v6.88z" fill="#34256b" data-name="2D"/></g></svg>

<svg xmlns="http://www.w3.org/2000/svg" viewBox="0 0 18.41 11.67"><defs><style>.cls-1{fill:#34256b;}</style></defs><title>icon-bed</title><g id="Capa_2" data-name="Capa 2"><g id="pantallas"><g id="_2D" data-name="2D"><path id="cama" class="cls-1" d="M7.57,1.73,8.64.47h-1V0H9.42V.37L8.35,1.63H9.46v.48H7.57Zm-2,1.39.71-.84H5.55V2H6.76v.24l-.71.84h.74v.32H5.53Zm12.11,8.55V10.09H.76v1.58H0V3.37H.76v3.1a1.51,1.51,0,0,1,.31-.16V6A1.63,1.63,0,0,1,2.69,4.32h2A1.63,1.63,0,0,1,6.34,6v.22H16.66a1.75,1.75,0,0,1,1,.3V4.79h.77v6.88Z"/></g></g></g></svg>
